thf_color.svg

<?xml version="1.0" encoding="UTF-8"?>
<svg id="b" data-name="Ebene_2" xmlns="http://www.w3.org/2000/svg" width="274.692095" height="349.505203" viewBox="0 0 274.692095 349.505203">
  <g id="c" data-name="Shield">
    <path d="M137.365424,13.968087l122.991,19.586894.541055,161.901274c.098876,29.577204-14.019402,57.400678-37.947996,74.785896l-85.628344,62.212584-85.578569-62.176449c-23.95641-17.40539-38.077955-45.271903-37.947592-74.883324l.712134-161.839981,122.858312-19.586894M137.364245,0l-2.170584.345989L12.335382,19.932883l-11.570646,1.844726-.051593,11.716678L.001009,195.334277c-.073584,16.705952,3.879187,33.413016,11.430853,48.314992,7.551665,14.901875,18.687171,27.96906,32.202731,37.788703l85.578536,62.176449,8.10801,5.890783,8.107976-5.890783,85.628378-62.212584c13.499901-9.808294,24.626583-22.858102,32.177373-37.738828,7.55079-14.880625,11.512418-31.566202,11.456649-48.252891l-.541055-161.901265-.0392-11.731311-11.585363-1.845029L139.534863.345619l-2.170618-.345619h0Z" fill="#013369"/>
  </g>
  <g id="d" data-name="Text">
    <g>
      <path d="M93.039474,77.569377h-18.778301v-4.920615h-5.021377v146.501145h5.021377v37.333289l-33.139255-21.501387v-15.831902h5.1216V72.648761h-5.1216v4.920615h-18.77884v-19.937329l70.696396-9.280774v29.218103Z" fill="#d50a0a"/>
      <path d="M145.504483,262.15268v-111.586456h-16.368643v111.586456h5.020838v35.2941l-33.038494-24.969353v-10.324747h5.021377V76.884164l-5.021377-4.235403v-26.156387l33.235501-4.064835-.197007,30.221223-5.020838,4.235403v53.095708h16.368643v-53.095708l-5.020838-4.235403.197007-30.221223,32.841487,4.064835v26.156387l-5.021377,4.466601v184.726971l5.021377.310348v10.324747l-33.038494,24.969353v-35.2941h5.020838Z" fill="#d50a0a"/>
      <path d="M219.00285,150.315667h-8.529757v68.282475h9.640246v23.823611l-37.657902,23.813364v-47.636975l5.021377-.07915V76.563598l-5.021377-4.466601v-24.297487l67.117335,8.177246v24.517203h-18.879062l-3.074471-8.396962h-17.146146v59.339608h8.529757l3.057395-8.864663h15.027851v36.991634h-13.871863l-4.213384-9.247908Z" fill="#d50a0a"/>
    </g>
  </g>
</svg>

<?xml version="1.0" encoding="UTF-8" standalone="no"?>
<!DOCTYPE svg PUBLIC "-//W3C//DTD SVG 1.1//EN" "http://www.w3.org/Graphics/SVG/1.1/DTD/svg11.dtd">
<svg width="100%" height="100%" viewBox="0 0 275 350" version="1.1" xmlns="http://www.w3.org/2000/svg" xmlns:xlink="http://www.w3.org/1999/xlink" xml:space="preserve" xmlns:serif="http://www.serif.com/" style="fill-rule:evenodd;clip-rule:evenodd;stroke-linejoin:round;stroke-miterlimit:2;">
    <g id="c">
        <path d="M137.365,13.968L260.356,33.555L260.897,195.456C260.996,225.033 246.878,252.857 222.949,270.242L137.321,332.455L51.743,270.278C27.786,252.873 13.665,225.006 13.795,195.395L14.507,33.555L137.365,13.968M137.364,0L135.194,0.346L12.335,19.933L0.765,21.778L0.713,33.494L0.001,195.334C-0.073,212.04 3.88,228.747 11.432,243.649C18.984,258.551 30.119,271.618 43.635,281.438L129.213,343.614L137.321,349.505L145.429,343.614L231.057,281.402C244.557,271.594 255.684,258.544 263.235,243.663C270.786,228.782 274.747,212.097 274.692,195.41L274.15,33.509L274.111,21.778L262.526,19.933L139.535,0.346L137.364,0Z" style="fill:rgb(255,168,19);fill-rule:nonzero;"/>
    </g>
    <g id="d">
        <g>
            <path d="M93.039,77.569L74.261,77.569L74.261,72.649L69.24,72.649L69.24,219.15L74.261,219.15L74.261,256.483L41.122,234.982L41.122,219.15L46.244,219.15L46.244,72.649L41.122,72.649L41.122,77.569L22.343,77.569L22.343,57.632L93.039,48.351L93.039,77.569Z" style="fill:rgb(255,168,19);fill-rule:nonzero;"/>
            <path d="M145.504,262.153L145.504,150.566L129.136,150.566L129.136,262.153L134.157,262.153L134.157,297.447L101.118,272.477L101.118,262.153L106.14,262.153L106.14,76.884L101.118,72.649L101.118,46.492L134.354,42.428L134.157,72.649L129.136,76.884L129.136,129.98L145.504,129.98L145.504,76.884L140.484,72.649L140.681,42.428L173.522,46.492L173.522,72.649L168.501,77.115L168.501,261.842L173.522,262.153L173.522,272.477L140.484,297.447L140.484,262.153L145.504,262.153Z" style="fill:rgb(255,168,19);fill-rule:nonzero;"/>
            <path d="M219.003,150.316L210.473,150.316L210.473,218.598L220.113,218.598L220.113,242.422L182.455,266.235L182.455,218.598L187.477,218.519L187.477,76.564L182.455,72.097L182.455,47.8L249.573,55.977L249.573,80.494L230.694,80.494L227.619,72.097L210.473,72.097L210.473,131.437L219.003,131.437L222.06,122.572L237.088,122.572L237.088,159.564L223.216,159.564L219.003,150.316L219.003,150.316Z" style="fill:rgb(255,168,19);fill-rule:nonzero;"/>
        </g>
    </g>
</svg>
